X: 3
T: the Black Rogue v.1
R: jig
S: printed MS of unknown origin (RJ?)
Z: 2011 John Chambers <jc:trillian.mit.edu>
M: 6/8
L: 1/8
K: D
B |\
"A"cAA "G"BGG | "A"cAA ABd | "A"cAA "G"BAG | "D"AFD D2B |\
"A"cAA "G"BGG | "A"cAA "D"AFD | "G"G2A B{c}dB | "D"AFD D2 :|
|: e |\
"D"~f3 "G"~g3 | "D"afd "A"cBA | "D"~f3 "G"gfg | "D"afd dfg |\
"D"agf "G"gfe | "D"fed e{f}ed | "A"cBA "G"BAG | "D"AFD D2 :|

%%sep 1 1 500

